!!!!SEGMENT: Ver3022-Donna_che_sete.krn
!!!id: Ver3022
!!!AGN: Madrigal
!!!SCT: Slim (1972)
!!!voices: 4
!!!COM: Philippe Verdelot
!!!OTL: Donna che sete
**kern	**kern	**kern	**kern
*part4	*part3	*part2	*part1
*staff4	*staff3	*staff2	*staff1
*I"Bassus	*I"Tenor	*I"Altus	*I"Superius
*I'B	*I'T	*I'A	*I'S
*clefF4	*clefGv2	*clefGv2	*clefG2
*k[]	*k[]	*k[]	*k[]
*C:	*C:	*C:	*C:
*M2/1	*M2/1	*M2/1	*M2/1
*met(C)	*met(C)	*met(C)	*met(C)
=1	=1	=1	=1
0r	1e	0r	0r
.	2d	.	.
.	2e	.	.
=2	=2	=2	=2
1A	1c	1r	0r
2G	2B	2r	.
2A	[2c	[2e	.
=3	=3	=3	=3
1F	2c]	2e]	1a
.	2A	2d	.
2E	2B	2e	2g
[2F	[2A	[2c	2a
=4	=4	=4	=4
2F]	2A]	2c]	1f
2D	4G	2B	.
.	4F	.	.
2C	2G	1c	2e
2AA	2A	.	[2f
=5	=5	=5	=5
1D	1F	2A	2f]
.	.	2B	2d
2C	2G	2c	2e
2D	[2F	[2A	2f
=6	=6	=6	=6
1BB	2F]	2A]	1d
.	4E	2G#i	.
.	4D	.	.
*	*	*	*^
[1AA	2F	[1A	[1c	1c
.	2E	.	.	.
*	*	*	*v	*v
=7	=7	=7	=7
1AA]	2r	1A]	0c]
.	2e	.	.
2r	2e	2r	.
2A	2e	2c	.
=8	=8	=8	=8
2A	2f	2c	2r
2A	2.e	2c	2a
2F	.	2A	2a
.	4d	.	.
2D	[2d	2F	2a
=9	=9	=9	=9
1E	2d]	1G	2g
.	2c#i	.	2e
1D	2d	[1A	1f
.	2d	.	.
=10	=10	=10	=10
2r	2d	1A]	1e
2A	2c	.	.
2F	2d	2r	2r
2D	2f	2A	2a
=11	=11	=11	=11
2.A	4e	2.c	2a
.	4d	.	.
.	4c	.	2a
4G	4B	4c	.
2F	[1A	2c	2.a
2E	.	2c	.
.	.	.	4g
=12	=12	=12	=12
2D	2A]	2d	2f
2C	2c	2e	2e
1D	2B-X	2f	2.d
.	[2A	2f	.
.	.	.	4c
=13	=13	=13	=13
1E	2A]	1e	1B
.	2G#i	.	.
2AA	2A	2c	1A
2A	2c	2e	.
=14	=14	=14	=14
2G	2B	2e	2r
2F	2A	2d	2A
2E	2G	2e	2B
2E	2G	2e	2c
=15	=15	=15	=15
2D	1.A	2f	2d
2D	.	2d	2d
4AA	.	1c	[1e
4BB	.	.	.
4C	2A	.	.
4D	.	.	.
=16	=16	=16	=16
4E	2.G	2.B	1e]
4F	.	.	.
4G	.	.	.
4A	4F	4A	.
2B	2.E	1G	1e
[2c	.	.	.
.	4D	.	.
=17	=17	=17	=17
4c]	2.C	1c	0e
4B	.	.	.
1A	.	.	.
.	4D	.	.
.	1E	2B	.
2G	.	[2c	.
=18	=18	=18	=18
2A	2F	4c]	1c
.	.	4B	.
2AA	1E	2.A	.
1BB	.	.	1d
.	.	8G#iL	.
.	.	8F#iJ	.
.	2D	2G#i	.
=19	=19	=19	=19
0AA;	0E;	0A;	0c;
=20	=20	=20	=20
0AA	0A	0c	0e
=21	=21	=21	=21
2E	2G	2.B	2e
2E	2G	.	2e
.	.	4c	.
2D	2A	2d	2f
2C	2c	2e	2g
=22	=22	=22	=22
2F	2c	2f	2a
2F	2A	2f	2cc
2G	2B	2d	2b
2A	2c	[2f	[2a
=23	=23	=23	=23
1B	1d	2f]	4a]
.	.	.	8g#iL
.	.	.	8f#iJ
.	.	4e	2g#i
.	.	4d	.
1A	2e	2.c	1a
.	2A	.	.
.	.	4B	.
=24	=24	=24	=24
2r	2c	1A	2r
2AA	2c	.	2e
2E	2B	2r	2g
2E	2c	2G	2g
=25	=25	=25	=25
2D	1.d	2B-i	2f
2BB	.	2B-i	2d
1D	.	2A	1f
.	4c	2F	.
.	4B	.	.
=26	=26	=26	=26
1AA	2c	1A	1e
.	2A	.	.
2r	2G	2E	2r
2A	2A	2c	2e
=27	=27	=27	=27
2G	2E	2B	2e
2A	2A	2c	2e
2E	2G	2B	2e
2A	2A	2c	2e
=28	=28	=28	=28
2G	2E	2B	2e
2A	2c	2A	2e
2E	2B	2G	2e
2F	[2A	2A	2d
=29	=29	=29	=29
1E	4A]	1B	1e
.	8G#iL	.	.
.	8F#iJ	.	.
.	2G#i	.	.
2AA	1A	1c	2e
2AA	.	.	2c
=30	=30	=30	=30
2F	2r	2r	2d
2E	2G	2B	2e
2D	2A	2d	2f
2BB	2B	2D	2d
=31	=31	=31	=31
2AA	2c	2A	1e
2AA	2A	2E	.
2r	2B	2G	1e
2E	2B	2G	.
=32	=32	=32	=32
2.A	2r	2r	1e
.	1A	2c	.
4G	.	.	.
2F	.	2d	2f
2E	2B	[2e	2g
=33	=33	=33	=33
2.A	2c	2e]	1e
.	1A	2c	.
4G	.	.	.
2F	.	2d	2f
2E	2B	[2e	2g
=34	=34	=34	=34
2.A	2.c	2e]	1e
.	.	1c	.
4G	4B	.	.
1F	2A	.	2f
.	2A	2d	[2a
=35	=35	=35	=35
1E	1B	1e	4a]
.	.	.	8g#iL
.	.	.	8f#iJ
.	.	.	2g#i
1AA	1A	2c	1a
.	.	2c	.
=36	=36	=36	=36
2r	2r	2r	2r
2AA	2A	2c	2e
2D	2A	2d	2f
2AA	2A	2c	2e
=37	=37	=37	=37
2D	2A	2d	2f
2C	2A	2e	2e
1D	[1A	1f	1d
=38	=38	=38	=38
2AA	1A]	2e	1c#X
2A	.	2c	.
2A	1E	2c	2r
2G	.	2B	2e
=39	=39	=39	=39
2A	2r	2c	2e
2F	2A	2A	2d
1E	2A	1B	2.e
.	2G	.	.
.	.	.	4d
=40	=40	=40	=40
1AA	1.A	2A	2c
.	.	2.c	2.f
1r	.	.	.
.	.	4B	4e
.	2G	[2B	[2e
=41	=41	=41	=41
2r	1F	2B]	2e]
2A	.	2A	2d
2A	1E	2B	2.e
2G	.	2e	.
.	.	.	4d
=42	=42	=42	=42
2A	2r	2e	2c
2F	2A	2d	2A
1E	2A	2.e	1B
.	2G	.	.
.	.	4d	.
=43	=43	=43	=43
2F	1A	2c	1A
2D	.	1f	.
2D	1A	.	2r
2C	.	[2e	2a
=44	=44	=44	=44
2D	2r	4e]	2a
.	.	4d	.
2BB	2d	2d	2g
1AA	2d	2e	2.a
.	2c	2e	.
.	.	.	4g
=45	=45	=45	=45
1D	0d	2r	2f
.	.	2f	2.b-i
2D	.	2f	.
.	.	.	4a
2D	.	2f	[2a
=46	=46	=46	=46
1E	1B	2.e	2a]
.	.	.	2g#i
.	.	4d	.
2AA	2A	2c	2a
2A	2c	[2f	2a
=47	=47	=47	=47
2A	2c	4f]	1r
.	.	4e	.
2G	2B	1e	.
2A	2c	.	2r
2F	4B	2d	2a
.	4A	.	.
=48	=48	=48	=48
2E	1B	2.e	2a
2E	.	.	2g
.	.	4d	.
2F	2A	2c	2a
2D	2A	2d	2f
=49	=49	=49	=49
1E	2A	1B	2.e
.	2G	.	.
.	.	.	4d
2AA	4A	1A	2c
.	4G	.	.
2D	4F	.	[2f
.	4E	.	.
=50	=50	=50	=50
2D	2D	2r	4f]
.	.	.	4e
2C	2E	2c	1e
2D	2F	2A	.
2BB	2D	2B	2d
=51	=51	=51	=51
2AA	1A	1.c	[0el
2A	.	.	.
2A	1E	.	.
2G	.	2B	.
=52	=52	=52	=52
1A	1.c	1A	0e_
1E	.	1G	.
.	2B	.	.
=53	=53	=53	=53
2r	2.A	1.c	0e_
2AA	.	.	.
.	4G	.	.
2AA	2A	.	.
2GG	2B	2B	.
=54	=54	=54	=54
0AA	0c	0A	0e_
=55	=55	=55	=55
00El	00Bl	00Gl	00e]
==	==	==	==
*-	*-	*-	*-
!!!system-decoration: [*]
!!!RDF**kern: i = editorial accidental
!!!RDF**kern: l = terminal long
!!!ENC: Benjamin Ory
!!!END: 2021/2/16
!!!EED: Benjamin Ory
!!!EEV: 2021/04/29
!!!YEC: Copyright 2021 Benjamin Ory, All Rights Reserved
!!!ONB: Translated from MusicXML on 2021/04/29
